!!!OTL: WAS TRAEGT DIE GANS AUF IHREM SCHNABEL
!!!ARE: Europa, Mitteleuropa, Deutschland, Schlesien
!!!SCT: K1221
!!!YEM: Copyright 1995, estate of Helmut Schaffrath.
**kern
*ICvox
*Ivox
*M3/4
*k[f#]
*G:
{8d
8.d
16d
=1
4g
4g
8.f#
16g
=2
4a
4d
8.e
16d
=3
2d}
{4d
=4
4cc
8cc
8cc
8.a
16cc
=5
4b
4b}
{8.g
16b
=6
4a
4a
8g
8a
=7
4b
4b
8.a
16a
=8
4g
8r}
==
!!!AGN: Kinder - Lied, Tier - Maerchen
!!!ONB: ESAC (Essen Associative Code) Database: KINDER
!!!AMT: simple triple
!!!AIN: vox
!!!EED: Helmut Schaffrath
!!!EEV: 1.0
*-
